X: 41134
T: Trip To Walden Pond
R: reel
M: 4/4
K: Amajor
K: Bmaj
FBBd c2cB|ABcd c2B2|abaf ge(3eee|cdef c2B2|
fedB c2cB|ABcd c2Be|fBBf gBeB|1 cBcd ~B2BG:|2 cBcd ~B2ab||
fB~B2 fbfd|c2Bd cdef|gB~B2 eBgf|cB~B2 cdfa|
bB~B2 Bbfd|c2Bd cdef|f2gB ~B2dB|1 cBcd B2fg:|2 cBcd B2z2||

